X: 0
T: Erfurt, LM
Z: Geistliche Lieder, Leipzig, Germany, 1539
Z: Public  domain
L: 1/4
M: 4/4
Q: 1/4=115
V: P1_1 name="Staff 1"
V: P1_2
%%MIDI program 1 -1
V: P2_1 name="Erfurt"
V: P2_2
%%MIDI program 2 -1
K: C
% Extracting voice 1 from part P1
[V: P1_1]  | | | | | | | [EB] A [EG] [CA] | F/E/ [B,D]|]|] Z 
% Extracting voice 2 from part P1
[V: P1_2]  | | | | | | | x1  C/D/ x2  | A, x1  C4)|]|] Z 
% Extracting voice 1 from part P2
[V: P2_1]  | | | | | | | [E,G,] A,/B,/ [C,C] [A,,E,] ||]|] Z 
% Extracting voice 2 from part P2
[V: P2_2]  | | | | | | | x1  F, x2  ||]|] Z 

